img/decorate-rocket.svg

<svg width="135" height="68" viewBox="0 0 135 68" fill="none" xmlns="http://www.w3.org/2000/svg">
<path d="M90.7514 8.73031C94.4994 11.6685 98.0298 14.8312 101.423 18.1571C97.5323 18.8448 93.6422 19.1927 89.6569 19.3016C89.0226 19.3175 88.6178 19.6521 88.395 20.0809C84.3671 16.6156 80.0433 13.538 75.5061 10.8918C80.3962 6.90604 84.4413 3.78325 90.7514 8.73031ZM92.4642 28.881C92.5835 29.0072 92.7083 29.1028 92.8353 29.1824L92.8328 29.1891C91.6744 37.6572 90.5229 45.2385 83.1559 50.3356H83.1477C67.028 53.3309 50.4041 52.1838 35.9393 43.9214C31.8395 41.5806 27.9934 38.8057 24.3834 35.7254C32.2734 27.2466 34.161 14.8763 31.1868 3.92931L31.1443 3.82043C53.5235 1.80363 76.3565 11.8146 92.4642 28.881ZM100.292 30.5632C98.9211 38.1564 97.2124 45.678 95.184 53.1211C93.0307 51.8439 90.8707 50.5785 88.6468 49.4301C93.6142 44.965 95.1825 36.8407 95.8416 30.4172C97.3249 30.4836 98.8082 30.53 100.292 30.5632ZM103.464 36.688C109.917 34.2742 114.262 42.3082 118.659 46.456C116.467 48.5033 114.127 50.5347 111.181 51.3075C107.094 52.3789 103.395 50.6277 100.22 48.1462C100.042 48.0068 99.8364 47.9696 99.6441 47.9961C100.605 44.1829 101.459 40.3472 102.221 36.4875C102.517 36.7624 102.945 36.8832 103.464 36.688ZM123.751 41.1372C125.657 43.9002 127.496 46.4467 129.989 48.4914C125.498 51.3898 122.092 55.916 116.71 57.2331C110.027 58.8688 103.325 56.2492 98.7807 51.3513C98.9678 50.6529 99.1399 49.9532 99.3207 49.2521C101.48 52.8556 105.62 54.6905 109.788 54.4356C114.687 54.1342 118.568 50.6981 121.932 47.4505C122.653 46.7521 122.406 45.6395 121.632 45.1216C115.668 41.1279 111.546 30.6243 102.714 33.9662H102.709L102.751 33.7471L103.039 33.6436C111.846 29.5117 118.705 33.8268 123.751 41.1372ZM4.21457 12.7852C11.615 8.2311 19.4493 5.46813 27.3897 4.26257C27.3738 4.48164 27.3844 4.71001 27.4521 4.95962C30.3258 15.4565 27.8634 24.9085 22.3084 33.9011C15.4307 27.6556 9.43787 20.3173 4.21457 12.7852ZM81.8504 54.1063C83.952 56.216 89.1024 60.0584 89.7362 62.9462C90.2166 65.1197 90.613 64.1451 88.2887 64.5713C86.4474 64.9086 83.8587 64.5713 81.9842 64.5713C78.6663 64.5713 74.7375 65.1489 71.4767 64.5713C68.2184 63.9951 66.4548 62.8586 65.1307 59.6694C64.6031 58.3988 64.404 56.8852 64.0775 55.4951C69.6959 55.6132 75.4765 54.8445 81.3804 53.0335C81.3711 53.3853 81.5064 53.7611 81.8504 54.1063ZM73.4031 9.70221C50.9498 -2.55392 23.6855 -4.26534 0.871219 10.767C0.126929 11.2583 -0.300268 12.3324 0.248995 13.1463C14.6333 34.5039 36.5813 53.9111 62.0305 55.4194C61.7957 59.1144 62.0264 65.0015 65.5406 67.0581C67.8002 68.3805 71.1254 67.8375 73.5782 67.8388C77.4309 67.8402 81.2835 67.8388 85.1367 67.8388C87.9467 67.8388 93.9366 69.0922 93.9833 64.6085C94.0257 60.3558 87.189 54.5073 84.139 52.0483C85.1947 51.7058 86.1514 51.2411 87.0246 50.6781C89.5796 53.0122 92.3979 54.9189 95.3644 56.7033C96.2013 57.2078 97.2917 56.7245 97.5571 55.8111C97.7033 55.3052 97.8308 54.7967 97.9738 54.2922C101.667 58.7799 107.159 61.2733 113.107 61.2268C122.407 61.1551 126.415 53.7199 134.15 50.1749C135.358 49.62 135.206 47.7678 134.15 47.169C127.313 43.3 125.316 34.7389 118.45 30.8381C113.729 28.1561 108.33 28.0419 103.44 29.9286C103.463 29.7879 103.492 29.6498 103.514 29.509C103.672 28.5544 103.124 27.637 102.076 27.6197C99.8726 27.5839 97.6701 27.5374 95.4664 27.5573C95.4716 27.1524 95.3432 26.7328 94.986 26.3557C93.6687 24.9616 92.301 23.622 90.8996 22.3208C95.7277 22.3221 100.446 21.7499 105.181 20.7342C106.413 20.47 106.705 18.8528 105.897 18.015C102.345 14.3306 98.6465 10.8095 94.6969 7.55397C92.3565 5.62613 89.5304 2.70117 86.5785 1.87135C81.6898 0.495842 76.4171 5.52921 73.4031 9.70221Z" fill="#FFD787"/>
<path d="M50.9441 16.2225C55.527 18.5686 56.945 24.0454 55.6582 28.7442C55.0943 30.8048 53.6919 33.6913 51.4391 34.456C48.8162 35.3456 45.3139 33.666 43.4353 31.9613C40.1049 28.938 39.6457 24.3216 40.5946 20.1645C42.5515 16.1814 46.7318 14.0676 50.9441 16.2225ZM37.3536 19.2165C37.1758 19.8259 37.3919 20.373 37.778 20.7647C32.0399 33.7935 53.4929 46.525 58.7231 31.1328C61.0209 24.3707 58.8925 16.1654 52.0895 12.9789C46.3804 10.3062 39.1669 13.0068 37.3536 19.2165Z" fill="#FFD787"/>
</svg>

<svg width="135" height="68" viewBox="0 0 135 68" fill="none" xmlns="http://www.w3.org/2000/svg"><path d="M90.751 8.73c3.748 2.938 7.279 6.101 10.672 9.427-3.89.688-7.78 1.036-11.766 1.145-.634.015-1.04.35-1.262.779a86.945 86.945 0 00-12.889-9.19c4.89-3.985 8.935-7.108 15.245-2.16zm1.713 20.151c.12.126.244.222.371.301l-.002.007c-1.159 8.468-2.31 16.05-9.677 21.147h-.008c-16.12 2.995-32.744 1.848-47.209-6.415-4.1-2.34-7.946-5.115-11.556-8.196 7.89-8.478 9.778-20.849 6.804-31.796l-.043-.109c22.38-2.016 45.212 7.995 61.32 25.061zm7.828 1.682a264.529 264.529 0 01-5.108 22.558c-2.153-1.277-4.313-2.543-6.537-3.69 4.967-4.466 6.535-12.59 7.195-19.014 1.483.067 2.966.113 4.45.146zm3.172 6.125c6.453-2.414 10.798 5.62 15.195 9.768-2.192 2.047-4.532 4.079-7.478 4.851-4.087 1.072-7.786-.68-10.961-3.16a.75.75 0 00-.576-.15 227.09 227.09 0 002.577-11.51c.296.275.724.396 1.243.201zm20.287 4.45c1.906 2.762 3.745 5.309 6.238 7.353-4.491 2.899-7.897 7.425-13.279 8.742-6.683 1.636-13.385-.984-17.93-5.882.188-.698.36-1.398.54-2.099 2.16 3.604 6.3 5.438 10.468 5.184 4.899-.302 8.78-3.738 12.144-6.986.721-.698.474-1.81-.3-2.328-5.964-3.994-10.086-14.498-18.918-11.156h-.005l.042-.219.288-.103c8.807-4.132 15.666.183 20.712 7.493zM4.215 12.784c7.4-4.554 15.234-7.317 23.175-8.522-.016.219-.006.447.062.697 2.874 10.497.411 19.948-5.144 28.941-6.877-6.245-12.87-13.584-18.093-21.116zM81.85 54.106c2.102 2.11 7.252 5.952 7.886 8.84.48 2.174.877 1.2-1.447 1.625-1.842.338-4.43 0-6.305 0-3.318 0-7.246.578-10.507 0-3.259-.576-5.022-1.712-6.346-4.902-.528-1.27-.727-2.784-1.053-4.174 5.618.118 11.398-.65 17.302-2.462-.009.352.126.728.47 1.073zM73.403 9.702C50.95-2.554 23.685-4.265.871 10.767c-.744.491-1.171 1.565-.622 2.38C14.633 34.503 36.581 53.91 62.031 55.418c-.235 3.695-.005 9.582 3.51 11.64 2.26 1.322 5.584.779 8.037.78h11.559c2.81 0 8.8 1.253 8.846-3.23.043-4.253-6.794-10.102-9.844-12.56a12.307 12.307 0 002.886-1.37c2.555 2.333 5.373 4.24 8.34 6.024.836.505 1.927.021 2.192-.892.146-.506.274-1.014.417-1.519 3.693 4.488 9.185 6.981 15.133 6.935 9.3-.072 13.308-7.507 21.043-11.052 1.208-.555 1.056-2.407 0-3.006-6.837-3.869-8.834-12.43-15.7-16.33-4.721-2.683-10.12-2.797-15.01-.91.023-.141.052-.28.074-.42.158-.955-.39-1.872-1.438-1.89-2.203-.035-4.406-.082-6.61-.062a1.669 1.669 0 00-.48-1.201A87.83 87.83 0 0090.9 22.32c4.828.001 9.546-.571 14.281-1.587 1.232-.264 1.524-1.881.716-2.719-3.552-3.684-7.25-7.206-11.2-10.461-2.34-1.928-5.167-4.853-8.118-5.683-4.89-1.374-10.163 3.66-13.176 7.832z" fill="#FFD787"/><path d="M50.944 16.223c4.583 2.346 6.001 7.822 4.714 12.521-.564 2.06-1.966 4.947-4.219 5.712-2.623.89-6.125-.79-8.004-2.495-3.33-3.023-3.79-7.64-2.84-11.796 1.956-3.984 6.137-6.097 10.35-3.942zm-13.59 2.994c-.178.609.038 1.156.424 1.548-5.738 13.029 15.715 25.76 20.945 10.368 2.298-6.762.17-14.968-6.633-18.154-5.71-2.673-12.923.028-14.736 6.238z" fill="#FFD787"/></svg>
